X:1
T:Scribere proposui de contemtu mundano
T:Scribere proposui de contemtu mundano
T:Piae Cantiones (1582)
C:Piae Cantiones (1582)
L:1/8
M:4/4
K:C
V:1 treble-8 nm="Piano" snm="Pno."
V:1
 e2 e2 d2 e2 | c2 B2 A2 A2 | c2 d2 e2 g2 | e4 e4 | e2 e2 d2 e2 | c2 B2 A2 A2 | c2 d2 e2 g2 | %7
w: Scri- be- re pro-|po- su- i de|con- tem- tu mun-|da- no,|Iam est ho- ra|sur- ge- re de|som- no mor- tis|
 e4 e4 | g2 e2 d2 e2 | c2 B2 A2 A2 | c2 d2 A2 c2 | B4 A4 ||"^Refreng:" A2 G2 A2 B2 | c2 BA G4 | %14
w: va- no,|Zi- za- ni- am|sper- ne- re sum-|to vir- tu- um|gra- no:|Sur- ge, sur- ge,|vi- gi- * la,|
 B2 d2 e4 | A2 c2 B4 | A8 |] %17
w: sem- per e-|sto pa- ra-|tus.|

